src/4-icons/check.svg

<svg width="260" height="260" viewBox="0 0 260 260" fill="none" xmlns="http://www.w3.org/2000/svg">
<path d="M126.412 207.012C170.222 207.012 205.712 171.522 205.712 127.712C205.712 83.9019 170.222 48.4119 126.412 48.4119C82.6018 48.4119 47.1118 83.9019 47.1118 127.712C47.1382 171.496 82.6272 206.986 126.412 207.012ZM77.7146 78.9883C90.1946 66.5083 107.381 58.8129 126.438 58.8129C145.47 58.8129 162.682 66.5093 175.163 78.9883C187.644 91.4673 195.338 108.654 195.338 127.713C195.338 146.745 187.643 163.956 175.163 176.438C162.683 188.919 145.497 196.613 126.438 196.613C107.406 196.613 90.1946 188.917 77.7136 176.438C65.2326 163.957 57.5382 146.772 57.5382 127.713C57.5382 108.655 65.2346 91.4693 77.7136 78.9883H77.7146Z" fill="black"/>
<path d="M175.448 93.5216C175.448 93.5216 165.23 89.0498 160.498 94.3016C155.793 99.527 113.62 148.902 113.62 148.902C113.62 148.902 97.6037 131.612 92.3519 126.906C87.1001 122.201 77.4019 127.686 77.4019 127.686L113.724 166.426L175.448 93.5227V93.5216Z" fill="black"/>
</svg>

<svg width="260" height="260" fill="none" xmlns="http://www.w3.org/2000/svg"><path d="M126.412 207.012c43.81 0 79.3-35.49 79.3-79.3 0-43.81-35.49-79.3-79.3-79.3-43.81 0-79.3 35.49-79.3 79.3.026 43.784 35.515 79.274 79.3 79.3ZM77.715 78.988c12.48-12.48 29.666-20.175 48.723-20.175 19.032 0 36.244 7.696 48.725 20.175 12.481 12.48 20.175 29.666 20.175 48.725 0 19.032-7.695 36.243-20.175 48.725-12.48 12.481-29.666 20.175-48.725 20.175-19.032 0-36.243-7.696-48.724-20.175-12.481-12.481-20.176-29.666-20.176-48.725 0-19.058 7.697-36.244 20.176-48.725Z" fill="#000"/><path d="M175.448 93.522s-10.218-4.472-14.95.78c-4.705 5.225-46.878 54.6-46.878 54.6s-16.016-17.29-21.268-21.996c-5.252-4.705-14.95.78-14.95.78l36.322 38.74 61.724-72.903v-.001Z" fill="#000"/></svg>
